svg/体育.svg

<svg width="36" height="36" viewBox="0 0 36 36" fill="none" xmlns="http://www.w3.org/2000/svg"><rect x="-75.3" y="-9.8" width="186.6" height="87.6" rx="11.8" stroke="#DDDDDD" stroke-width="0.4"/><g opacity="0.8"><path d="M20.565 27.5791C22.485 27.8291 24.405 28.0391 26.315 28.3191C27.845 28.5491 29.345 28.9291 30.755 29.5691C31.385 29.8591 31.995 30.2291 32.525 30.6691C33.335 31.3591 33.315 32.1891 32.545 32.9291C31.805 33.6491 30.875 34.0291 29.925 34.3691C28.135 35.0191 26.275 35.3591 24.395 35.5991C21.005 36.0291 17.605 36.1091 14.195 35.8591C11.445 35.6591 8.72496 35.2891 6.10496 34.3891C5.19496 34.0691 4.30496 33.6991 3.57496 33.0491C2.65496 32.2291 2.61496 31.3191 3.59496 30.5791C4.35496 30.0191 5.22496 29.5691 6.11496 29.2391C8.38496 28.3891 10.795 28.0491 13.225 27.8391C14.325 27.7391 15.435 27.7091 16.535 27.6291C16.825 27.6091 16.985 27.7091 17.145 27.9391C17.795 28.8091 18.495 29.6391 19.485 30.1291C19.875 30.3291 20.335 30.4391 20.765 30.4491C21.495 30.4591 21.855 29.8591 21.565 29.1791C21.445 28.8991 21.265 28.6491 21.085 28.3991C20.915 28.1591 20.715 27.9491 20.525 27.7291C20.535 27.6791 20.545 27.6291 20.555 27.5691L20.565 27.5791Z" fill="#8D8F91"/><path d="M25.5725 26.0239C25.2525 26.0339 24.9325 25.9239 24.6225 25.8339C24.2825 25.7339 23.9625 25.6139 23.6325 25.4939C23.3025 25.3739 22.9925 25.2339 22.6725 25.1039C22.6425 25.0839 22.6025 25.0739 22.5725 25.0539C21.1725 24.3539 19.8525 23.4839 18.5025 22.6839C18.1625 22.4839 17.8425 22.2439 17.4825 22.1039C16.9525 21.8939 16.5525 22.1939 16.6825 22.7339C16.8325 23.3639 17.0325 24.0239 17.3925 24.5439C18.3725 25.9339 19.4525 27.2539 20.4925 28.5939C20.5725 28.6939 20.6625 28.7539 20.7125 28.8839C20.7825 29.0539 20.8025 29.2639 20.7325 29.4339C20.6425 29.6539 20.3825 29.7239 20.1525 29.6839C19.9125 29.6339 19.6625 29.4939 19.4625 29.3339C17.0025 27.4039 15.1525 24.9739 13.6125 22.2939C11.1125 17.9139 9.53252 13.1839 8.48252 8.25389C8.44252 8.07389 8.40252 7.88389 8.38252 7.70389C8.35252 7.29389 8.62252 6.97389 9.01252 6.95389C9.41252 6.93389 9.54252 7.21389 9.62252 7.56389C9.87252 8.59389 10.0525 9.65389 10.4325 10.6339C11.1825 12.5639 12.6725 13.5139 14.7425 13.5139C16.7025 13.5139 18.6325 13.2539 20.5425 12.8439C21.2825 12.6839 22.0125 12.4939 22.7425 12.3039C23.1125 12.2039 23.4725 12.1139 23.8425 12.0139C24.1825 11.9239 24.5225 11.8039 24.8825 11.8239C25.1225 11.8239 25.4325 11.9839 25.4825 12.2439C25.5525 12.6139 25.1325 12.8039 24.8625 12.9339C24.5025 13.1039 24.1425 13.2739 23.7725 13.4139C23.0425 13.6939 22.2625 13.8639 21.5425 14.1639C20.6125 14.5639 19.6725 14.9739 18.8125 15.4939C17.5025 16.2939 17.1625 17.6139 17.8025 19.0139C18.2125 19.9139 18.8925 20.5939 19.6825 21.1539C21.7225 22.6039 23.8525 23.9239 26.1425 24.9439C26.3525 25.0339 26.6625 25.3539 26.5325 25.6039C26.4525 25.7639 26.2425 25.8639 26.0825 25.9239C25.9225 25.9839 25.7525 26.0239 25.5825 26.0239H25.5725Z" fill="#292D32"/><path d="M17.5024 8.98395C17.5024 10.264 16.6624 11.394 15.6624 11.564C14.9824 11.684 14.4324 11.444 14.0124 10.914C13.0624 9.72395 13.7224 7.52395 15.1624 7.04395C16.2624 6.67395 17.3324 7.42395 17.4924 8.66395C17.4924 8.79395 17.4924 8.92395 17.5024 8.98395Z" fill="#292D32"/><path d="M12 0.120117H24C30.5611 0.120117 35.8799 5.43886 35.8799 12V24C35.8799 30.5611 30.5611 35.8799 24 35.8799H12C5.43886 35.8799 0.120117 30.5611 0.120117 24V12C0.120117 5.43886 5.43886 0.120117 12 0.120117Z" stroke="#D1D5DA" stroke-width="0.24"/></g><defs><clipPath id="clip0_1970_14250"></clipPath></defs></svg>

<svg fill="none" viewBox="0 0 36 36"><rect width="186.6" height="87.6" x="-75.3" y="-9.8" stroke="#DDDDDD" stroke-width=".4" rx="11.8"/><g opacity=".8"><path fill="#8D8F91" d="M20.565 27.58c1.92.25 3.84.46 5.75.74 1.53.23 3.03.61 4.44 1.25.63.29 1.24.66 1.77 1.1.81.69.79 1.52.02 2.26-.74.72-1.67 1.1-2.62 1.44-1.79.65-3.65.99-5.53 1.23-3.39.43-6.79.51-10.2.26-2.75-.2-5.47-.57-8.09-1.47-.91-.32-1.8-.69-2.53-1.34-.92-.82-.96-1.73.02-2.47.76-.56 1.63-1.01 2.52-1.34 2.27-.85 4.68-1.19 7.11-1.4 1.1-.1 2.21-.13 3.31-.21.29-.02.45.08.61.31.65.87 1.35 1.7 2.34 2.19.39.2.85.31 1.28.32.73.01 1.09-.59.8-1.27-.12-.28-.3-.53-.48-.78-.17-.24-.37-.45-.56-.67.01-.05.02-.1.03-.16z"/><path fill="#292D32" d="M25.573 26.024c-.32.01-.64-.1-.95-.19-.34-.1-.66-.22-.99-.34s-.64-.26-.96-.39c-.03-.02-.07-.03-.1-.05-1.4-.7-2.72-1.57-4.07-2.37-.34-.2-.66-.44-1.02-.58-.53-.21-.93.09-.8.63.15.63.35 1.29.71 1.81.98 1.39 2.06 2.71 3.1 4.05.08.1.17.16.22.29.07.17.09.38.02.55-.09.22-.35.29-.58.25-.24-.05-.49-.19-.69-.35-2.46-1.93-4.31-4.36-5.85-7.04-2.5-4.38-4.08-9.11-5.13-14.04-.04-.18-.08-.37-.1-.55-.03-.41.24-.73.63-.75.4-.02.53.26.61.61.25 1.03.43 2.09.81 3.07.75 1.93 2.24 2.88 4.31 2.88 1.96 0 3.89-.26 5.8-.67.74-.16 1.47-.35 2.2-.54.37-.1.73-.19 1.1-.29.34-.09.68-.21 1.04-.19.24 0 .55.16.6.42.07.37-.35.56-.62.69-.36.17-.72.34-1.09.48-.73.28-1.51.45-2.23.75-.93.4-1.87.81-2.73 1.33-1.31.8-1.65 2.12-1.01 3.52.41.9 1.09 1.58 1.88 2.14 2.04 1.45 4.17 2.77 6.46 3.79.21.09.52.41.39.66-.08.16-.29.26-.45.32s-.33.1-.5.1z"/><path fill="#292D32" d="M17.502 8.984c0 1.28-.84 2.41-1.84 2.58-.68.12-1.23-.12-1.65-.65-.95-1.19-.29-3.39 1.15-3.87 1.1-.37 2.17.38 2.33 1.62 0 .13 0 .26.01.32"/><path stroke="#D1D5DA" stroke-width=".24" d="M12 .12h12C30.561.12 35.88 5.44 35.88 12v12c0 6.561-5.319 11.88-11.88 11.88H12C5.439 35.88.12 30.56.12 24V12C.12 5.439 5.44.12 12 .12Z"/></g></svg>
